X: 1
T: Woodland Flowers
T: the Shit Cart Polka
T: Mrs Kenny's Barndance
C: Felix Burns
S: http://lesters-tune-a-day.blogspot.co.uk/2014/09/tune-389-woodland-flowers.html
M: 6/8
L: 1/8
K: G
|:\
DGB A2G | DGB A2G |\
E2C E2G | c6 |\
d2B c2A | B2G E2F |\
[1 G2B AGE | D6 :|\
[2 G2D BdB | G6 ||
|:\
BAG D2D | BAG D2D |\
cBA E2E | cBA E2E |\
F2G F2E | D2c B2A |\
[1 G2A BAG | D6 :|\
[2 G2D BdB | G6 |]
